Sources/FrostedUI/Resources/Icons.xcassets/tag32.imageset/tag-32.svg

<svg width="32" height="32" viewBox="0 0 32 32" fill="none" xmlns="http://www.w3.org/2000/svg" data-fui-icon="true">
  <path
    d="M26.21 2C27.7508 2 29 3.24916 29 4.79004V14.416C28.9999 15.1472 28.7125 15.8494 28.2002 16.3711L16.2246 28.5635C15.3224 29.4821 14.0893 30 12.8018 30C11.5293 30 10.309 29.4945 9.40918 28.5947L2.40527 21.5908C1.50554 20.691 1.00001 19.4707 1 18.1982C1 16.9107 1.51793 15.6776 2.43652 14.7754L14.6289 2.7998C15.1506 2.28748 15.8528 2.00007 16.584 2H26.21ZM16.584 3.5C16.246 3.50007 15.9218 3.63327 15.6807 3.87012L3.4873 15.8447C2.85589 16.4649 2.5 17.3132 2.5 18.1982C2.50001 19.0729 2.84739 19.9118 3.46582 20.5303L10.4697 27.5342C11.0882 28.1526 11.9271 28.5 12.8018 28.5C13.6868 28.5 14.5351 28.1441 15.1553 27.5127L27.1299 15.3193C27.3667 15.0782 27.4999 14.754 27.5 14.416V4.79004C27.5 4.07759 26.9224 3.5 26.21 3.5H16.584ZM22.5 6C23.8807 6 25 7.11929 25 8.5C25 9.88071 23.8807 11 22.5 11C21.1193 11 20 9.88071 20 8.5C20 7.11929 21.1193 6 22.5 6ZM22.5 7.5C21.9477 7.5 21.5 7.94772 21.5 8.5C21.5 9.05228 21.9477 9.5 22.5 9.5C23.0523 9.5 23.5 9.05228 23.5 8.5C23.5 7.94772 23.0523 7.5 22.5 7.5Z"
    fill="currentColor"
  />
</svg>

<svg xmlns="http://www.w3.org/2000/svg" width="32" height="32" fill="none" data-fui-icon="true" viewBox="0 0 32 32"><path fill="currentColor" d="M26.21 2A2.79 2.79 0 0 1 29 4.79v9.626c0 .731-.288 1.433-.8 1.955L16.225 28.564a4.8 4.8 0 0 1-6.816.03l-7.004-7.003a4.8 4.8 0 0 1 .032-6.816L14.629 2.8a2.8 2.8 0 0 1 1.955-.8zm-9.626 1.5a1.3 1.3 0 0 0-.903.37L3.487 15.845a3.3 3.3 0 0 0-.021 4.685l7.004 7.004a3.3 3.3 0 0 0 4.685-.021L27.13 15.319a1.3 1.3 0 0 0 .37-.903V4.79a1.29 1.29 0 0 0-1.29-1.29zM22.5 6a2.5 2.5 0 1 1 0 5 2.5 2.5 0 0 1 0-5m0 1.5a1 1 0 1 0 0 2 1 1 0 0 0 0-2"/></svg>
